X:0948
T:Jess McFarlane.
M:C
L:1/8
Q:1/4=100
I: ||
Z:Jack Campin * www.campin.me.uk * 2009
K:G
G|B>cBA G2 zG|g>feg ({fg}a2) d>d|g>fe>d c3 B|edg>f e2 d2|
  Bc`BA G2 z2|g>feg ({fg}a2) d2 |gf`ed  c2B2|edg>f e2Hd2|\
  B>cBA G2  |]

